components/icon/svg/24/action_alert-on.svg

<?xml version="1.0" encoding="UTF-8"?>
<svg width="24px" height="24px" viewBox="0 0 24 24" version="1.1" xmlns="http://www.w3.org/2000/svg" xmlns:xlink="http://www.w3.org/1999/xlink">
    <!-- Generator: Sketch 64 (93537) - https://sketch.com -->
    <title>ic-db_action_alert-on_24</title>
    <desc>Created with Sketch.</desc>
    <g id="Symbols:Icon" stroke="none" stroke-width="1" fill="none" fill-rule="evenodd">
        <g id="24dp-Icon/Action/Alert-On" fill="#282D37">
            <path d="M11.9980458,2 C12.5381458,2 12.9843458,2.44603497 12.9843458,3.00932655 L12.9843458,4.08922699 L13.0079458,4.08902706 C16.0840458,4.58214461 17.9861458,7.23476314 17.9861458,11.178404 L18.0096458,13.9952618 C18.0096458,15.8262843 18.5263458,16.5070324 19.5360458,17.1642892 C19.9117458,17.3991023 20.0761458,17.8685286 19.9587458,18.2910723 C19.8178458,18.713616 19.4421458,18.9953117 18.9959458,18.9953117 L15.2621458,18.9953117 C15.1212458,20.6619951 13.7123458,22 12.0215458,22 C10.3072458,22 8.89834579,20.6619951 8.78084579,18.9953117 L5.00014579,18.9953117 C4.55394579,18.9953117 4.17824579,18.713616 4.03734579,18.2910723 C3.91994579,17.8685286 4.08434579,17.3991023 4.46004579,17.1642892 C5.49324579,16.4835411 5.98644579,15.8497756 5.98644579,13.9952618 L5.98644579,11.178404 C5.98644579,7.21127183 7.93554579,4.53516199 10.9882458,4.06573568 L10.9882458,3.00932655 C10.9882458,2.44603497 11.4344458,2 11.9980458,2 Z M13.2426458,18.9953117 L10.8004458,18.9953117 C10.9178458,19.5587033 11.4109458,19.9812469 12.0215458,19.9812469 C12.6086458,19.9812469 13.1017458,19.5587033 13.2426458,18.9953117 Z" id="🎨-Color"></path>
        </g>
    </g>
</svg>

<svg width="24" height="24" xmlns="http://www.w3.org/2000/svg"><path d="M11.998 2c.54 0 .986.446.986 1.01v1.08l.024-.001c3.076.493 4.978 3.146 4.978 7.09l.024 2.816c0 1.831.516 2.512 1.526 3.17.376.234.54.704.423 1.126-.141.423-.517.704-.963.704h-3.734c-.14 1.667-1.55 3.005-3.24 3.005a3.253 3.253 0 01-3.241-3.005H5c-.447 0-.823-.281-.964-.704a1.014 1.014 0 01.423-1.127c1.033-.68 1.526-1.314 1.526-3.169v-2.817c0-3.967 1.95-6.643 5.002-7.112V3.009c0-.563.446-1.009 1.01-1.009zm1.245 16.995H10.8c.118.564.61.986 1.222.986.587 0 1.08-.422 1.22-.986z" fill="#282D37" fill-rule="evenodd"/></svg>
